X: 14152
T: Frogg, The
R: polka
M: 2/4
K: Amixolydian
|AE GA|A/G/E GA|GE E/F/G|FD cA|
AE GA|A/G/E GA|GE E/F/G|FD A2:|
|:cA AE|cA AB/c/|dF FE|FA/B/ cA|
cA AE|cA AB/c/|df ed|cA A>B:|

